assets/icons/clock.svg

<svg width="24" height="25" viewBox="0 0 24 25" fill="none" xmlns="http://www.w3.org/2000/svg">
<path d="M21.25 12.6376C21.25 7.53179 17.1058 3.38757 12 3.38757C6.89421 3.38757 2.75 7.53179 2.75 12.6376C2.75 17.7434 6.89421 21.8876 12 21.8876C17.1058 21.8876 21.25 17.7434 21.25 12.6376ZM22.75 12.6376C22.75 18.5718 17.9342 23.3876 12 23.3876C6.06579 23.3876 1.25 18.5718 1.25 12.6376C1.25 6.70336 6.06579 1.88757 12 1.88757C17.9342 1.88757 22.75 6.70336 22.75 12.6376Z" fill="#111111"/>
<path d="M10.88 12.2472V8.14758C10.88 7.73337 11.2158 7.39758 11.63 7.39758C12.0442 7.39758 12.38 7.73337 12.38 8.14758V12.2472C12.38 12.4007 12.4391 12.6241 12.5695 12.8527C12.6671 13.0238 12.782 13.1587 12.8888 13.2482L12.9923 13.3224L12.9943 13.3234L16.0939 15.174L16.1583 15.2159C16.4634 15.4427 16.5526 15.8688 16.3536 16.2023C16.1545 16.5354 15.738 16.6579 15.3937 16.4972L15.3253 16.462L12.2257 14.6115V14.6105C11.8183 14.3683 11.4899 13.9888 11.2657 13.5958C11.0411 13.2019 10.88 12.7236 10.88 12.2472Z" fill="#111111"/>
</svg>

<svg xmlns="http://www.w3.org/2000/svg" width="24" height="25" fill="none" viewBox="0 0 24 25"><path fill="#111" d="M21.25 12.638c0-5.106-4.144-9.25-9.25-9.25s-9.25 4.144-9.25 9.25 4.144 9.25 9.25 9.25 9.25-4.145 9.25-9.25m1.5 0c0 5.934-4.816 10.75-10.75 10.75S1.25 18.572 1.25 12.638 6.066 1.888 12 1.888s10.75 4.815 10.75 10.75"/><path fill="#111" d="M10.88 12.247v-4.1a.75.75 0 0 1 1.5 0v4.1c0 .154.06.377.19.606.097.17.212.306.319.395l.103.074.002.001 3.1 1.851.064.042a.75.75 0 0 1-.764 1.281l-.069-.035-3.1-1.85v-.002c-.407-.242-.735-.621-.96-1.014-.224-.394-.385-.872-.385-1.349"/></svg>
